!!!OTL: WAS IST DAS GOETTLICHSTE AUF DIESER WELT
!!!ARE: Europa, Mitteleuropa, Deutschland
!!!SCT: F1037
!!!YEM: Copyright 1995, estate of Helmut Schaffrath.
**kern
*ICvox
*Ivox
*M4/4
*k[b-e-]
*B-:
{4f
=1
4.dd
8dd
8cc
8b-
8a
8g
=2
8.f
16d
4f
8r}
{8f
8f
8b-
=3
4b-
4a
8b-
8b-
8a
8b-
=4
4dd
4cc
4r}
{4cc
=5
4.een
8dd
8cc
8b-
8a
8g
=6
8.b-
16a
4cc
8r}
{8cc
8b-
8cc
=7
4dd
4dd
8ee-
8dd
8ee-
8cc
=8
4ff
4dd
8r}
{8f
8b-
8cc
=9
4dd
4dd
8ee-
8dd
8ee-
8cc
=10
4ff
4dd
4r
4b-
=11
4gg
4ee-
8r}
{8ee-
8ee-
8dd
=12
4cc
4dd
8ff
8ee-
8dd
8cc
=13
2.b-
8dd
8cc
=14
2b-
4r}
==
!!!AGN: Erbauungs - Lied, religioes, Moral
!!!ONB: ESAC (Essen Associative Code) Database: FINK
!!!AMT: simple quadruple
!!!AIN: vox
!!!EED: Helmut Schaffrath
!!!EEV: 1.0
*-
